X:1
T:Title
%%score { 1 | 2 }
L:1/8
M:4/4
K:Eb
V:1 treble nm="Grand Piano"
V:2 bass 
V:1
 z4 z2[Q:1/4=106] [GB]>[FA] | G2 G2 F2 E2 | [_Gc]4 [=GB]4 | [Ge]2 [EG]>[FA] [EG]2 [DF]2 | %4
[M:3/4] E4 z2 |[M:1/4] E>E |[M:4/4] A2 A2 G2 c2 | [GB]4 [GB]2 [_GB]>[Gc] | d2 B2 =A2 c2 | %9
[M:3/4] B4 z2 |[M:1/4] [GB]>[GB] |[M:4/4] [Ge]2 [GB]2 [_G=A]2 [=GB]2 | c4 c2 c>c | %13
 [=Ac]3 [Ac] [Ae]2 [Ae]2 |[M:3/4] d4 z2 |[M:1/4] c>B |[M:4/4] [GB]2 G2 F2 E2 | d2 c2 A2 [A,CF]2 | %18
 [G,B,E]2 [B,EG]2 [A,DG]3 [A,DF] |[M:3/4] [G,E]4 z2 |] %20
V:2
 z4 z2 [E,B,]>[E,B,] | [E,B,E]2 [E,B,E]2 [E,A,E]2 [E,G,]2 | [E,=A,]4 [E,B,]4 | %3
 [E,B,]2 [E,B,]>[E,B,] [B,,B,]2 [B,,A,]2 |[M:3/4] [E,G,]4 z2 |[M:1/4] [E,G,]>[E,G,] | %6
[M:4/4] [E,CE]2 [E,CE]2 [E,B,E]2 [E,A,E]2 | [E,B,]4 [E,B,]2 [E,B,]>[E,B,] | %8
 [F,B,F]2 [F,DF]2 [F,EF]2 [F,EF]2 |[M:3/4] [B,DF]4 z2 |[M:1/4][K:bass] [E,B,]>[E,B,] | %11
[M:4/4] [E,B,]2 [E,B,]2 [E,E]2 [E,E]2 | [A,EA]4 [A,EA]2 [A,EA]>[A,EA] | %13
 [F,E]3 [F,E][K:treble] [F,F]2 [F,F]2 |[M:3/4] [B,FA]4 z2 |[M:1/4] [B,DA]>[B,DA] | %16
[M:4/4][K:bass] [E,E]2 [E,B,E]2 [F,B,D]2 [G,B,]2 | [A,CE]2 [A,CE]2 [A,CE]2 A,,2 | %18
 B,,2 B,,2 B,,3 B,, |[M:3/4] E,4 z2 |] %20

